icons/compass.svg

<?xml version="1.0" standalone="no"?><!-- Generator: Gravit.io --><svg xmlns="http://www.w3.org/2000/svg" xmlns:xlink="http://www.w3.org/1999/xlink" width="96" height="96"><path d=" M 4 48 C 4 36.3 8.6 25.1 16.9 16.9 C 25.1 8.6 36.3 4 48 4 C 59.7 4 70.9 8.6 79.1 16.9 C 87.4 25.1 92 36.3 92 48 C 92 59.7 87.4 70.9 79.1 79.1 C 70.9 87.4 59.7 92 48 92 C 36.3 92 25.1 87.4 16.9 79.1 C 8.6 70.9 4 59.7 4 48 Z  M 12 48 C 12 38.5 15.8 29.3 22.5 22.5 C 29.3 15.8 38.5 12 48 12 C 57.5 12 66.7 15.8 73.5 22.5 C 80.2 29.3 84 38.5 84 48 C 84 57.5 80.2 66.7 73.5 73.5 C 66.7 80.2 57.5 84 48 84 C 38.5 84 29.3 80.2 22.5 73.5 C 15.8 66.7 12 57.5 12 48 Z  M 56 40 L 47.7 44.1 C 46.2 44.9 44.9 46.2 44.1 47.7 L 40 56 L 48.3 51.9 C 49.8 51.1 51.1 49.8 51.9 48.3 L 56 40 Z  M 59.9 29.1 L 44.1 37 C 41 38.5 38.5 41 37 44.1 L 29.1 59.9 L 29.049391542265383 60.068694859115396 C 28.41502508622815 62.183249712572824 28.840978458 64.840978458 30 66 L 30 66 C 31.159021542 67.15902154199999 33.816750287427176 67.58497491377184 35.93130514088461 66.95060845773462 L 36.1 66.9 L 51.9 59 C 55 57.5 57.5 55 59 51.9 L 66.9 36.1 L 66.95060845773462 35.93130514088461 C 67.58497491377184 33.816750287427176 67.15902154199999 31.159021542 66 30 L 66 30 C 64.840978458 28.840978458 62.183249712572824 28.41502508622815 60.068694859115396 29.049391542265383 L 59.9 29.1 Z " fill-rule="evenodd" fill="#454545" stroke="none"/><mask id="_mask_kfPKDsuybJGD0RLNnst0eTApBBGV6pTi"><path d=" M 4 48 C 4 36.3 8.6 25.1 16.9 16.9 C 25.1 8.6 36.3 4 48 4 C 59.7 4 70.9 8.6 79.1 16.9 C 87.4 25.1 92 36.3 92 48 C 92 59.7 87.4 70.9 79.1 79.1 C 70.9 87.4 59.7 92 48 92 C 36.3 92 25.1 87.4 16.9 79.1 C 8.6 70.9 4 59.7 4 48 Z  M 12 48 C 12 38.5 15.8 29.3 22.5 22.5 C 29.3 15.8 38.5 12 48 12 C 57.5 12 66.7 15.8 73.5 22.5 C 80.2 29.3 84 38.5 84 48 C 84 57.5 80.2 66.7 73.5 73.5 C 66.7 80.2 57.5 84 48 84 C 38.5 84 29.3 80.2 22.5 73.5 C 15.8 66.7 12 57.5 12 48 Z  M 56 40 L 47.7 44.1 C 46.2 44.9 44.9 46.2 44.1 47.7 L 40 56 L 48.3 51.9 C 49.8 51.1 51.1 49.8 51.9 48.3 L 56 40 Z  M 59.9 29.1 L 44.1 37 C 41 38.5 38.5 41 37 44.1 L 29.1 59.9 L 29.049391542265383 60.068694859115396 C 28.41502508622815 62.183249712572824 28.840978458 64.840978458 30 66 L 30 66 C 31.159021542 67.15902154199999 33.816750287427176 67.58497491377184 35.93130514088461 66.95060845773462 L 36.1 66.9 L 51.9 59 C 55 57.5 57.5 55 59 51.9 L 66.9 36.1 L 66.95060845773462 35.93130514088461 C 67.58497491377184 33.816750287427176 67.15902154199999 31.159021542 66 30 L 66 30 C 64.840978458 28.840978458 62.183249712572824 28.41502508622815 60.068694859115396 29.049391542265383 L 59.9 29.1 Z " fill-rule="evenodd" fill="white" stroke="none"/></mask><path d=" M 4 48 C 4 36.3 8.6 25.1 16.9 16.9 C 25.1 8.6 36.3 4 48 4 C 59.7 4 70.9 8.6 79.1 16.9 C 87.4 25.1 92 36.3 92 48 C 92 59.7 87.4 70.9 79.1 79.1 C 70.9 87.4 59.7 92 48 92 C 36.3 92 25.1 87.4 16.9 79.1 C 8.6 70.9 4 59.7 4 48 Z  M 12 48 C 12 38.5 15.8 29.3 22.5 22.5 C 29.3 15.8 38.5 12 48 12 C 57.5 12 66.7 15.8 73.5 22.5 C 80.2 29.3 84 38.5 84 48 C 84 57.5 80.2 66.7 73.5 73.5 C 66.7 80.2 57.5 84 48 84 C 38.5 84 29.3 80.2 22.5 73.5 C 15.8 66.7 12 57.5 12 48 Z  M 56 40 L 47.7 44.1 C 46.2 44.9 44.9 46.2 44.1 47.7 L 40 56 L 48.3 51.9 C 49.8 51.1 51.1 49.8 51.9 48.3 L 56 40 Z  M 59.9 29.1 L 44.1 37 C 41 38.5 38.5 41 37 44.1 L 29.1 59.9 L 29.049391542265383 60.068694859115396 C 28.41502508622815 62.183249712572824 28.840978458 64.840978458 30 66 L 30 66 C 31.159021542 67.15902154199999 33.816750287427176 67.58497491377184 35.93130514088461 66.95060845773462 L 36.1 66.9 L 51.9 59 C 55 57.5 57.5 55 59 51.9 L 66.9 36.1 L 66.95060845773462 35.93130514088461 C 67.58497491377184 33.816750287427176 67.15902154199999 31.159021542 66 30 L 66 30 C 64.840978458 28.840978458 62.183249712572824 28.41502508622815 60.068694859115396 29.049391542265383 L 59.9 29.1 Z " fill-rule="evenodd" fill="none" stroke="none" stroke-width="16" mask="url(#_mask_kfPKDsuybJGD0RLNnst0eTApBBGV6pTi)"/></svg>

<svg xmlns="http://www.w3.org/2000/svg" width="96" height="96"><path d="M4 48c0-11.7 4.6-22.9 12.9-31.1C25.1 8.6 36.3 4 48 4c11.7 0 22.9 4.6 31.1 12.9C87.4 25.1 92 36.3 92 48c0 11.7-4.6 22.9-12.9 31.1C70.9 87.4 59.7 92 48 92c-11.7 0-22.9-4.6-31.1-12.9C8.6 70.9 4 59.7 4 48zm8 0c0-9.5 3.8-18.7 10.5-25.5C29.3 15.8 38.5 12 48 12s18.7 3.8 25.5 10.5C80.2 29.3 84 38.5 84 48s-3.8 18.7-10.5 25.5C66.7 80.2 57.5 84 48 84s-18.7-3.8-25.5-10.5C15.8 66.7 12 57.5 12 48zm44-8l-8.3 4.1c-1.5.8-2.8 2.1-3.6 3.6L40 56l8.3-4.1c1.5-.8 2.8-2.1 3.6-3.6L56 40zm3.9-10.9L44.1 37c-3.1 1.5-5.6 4-7.1 7.1l-7.9 15.8-.05.169c-.635 2.114-.209 4.772.95 5.931 1.159 1.159 3.817 1.585 5.931.95l.169-.05L51.9 59c3.1-1.5 5.6-4 7.1-7.1l7.9-15.8.05-.169c.635-2.114.209-4.772-.95-5.931-1.159-1.159-3.817-1.585-5.931-.95l-.169.05z" fill-rule="evenodd" fill="#454545"/></svg>
